**kern	**silbe	**kern	**silbe
*ICvox	*	*ICvox	*
*G:	*	*G:	*
*M4/4	*	*M4/4	*
*clefG2	*	*clefG2	*
r;	.	r;	.
=1	=1	=1	=1
1r	.	1r	.
=2	=2	=2	=2
1r	.	1r	.
=3	=3	=3	=3
1r	.	1r	.
=4	=4	=4	=4
1r	.	1r	.
=5	=5	=5	=5
1r	.	1r	.
=6	=6	=6	=6
1r	.	1r	.
=7	=7	=7	=7
1r	.	1r	.
=8	=8	=8	=8
1r	.	1r	.
=9	=9	=9	=9
2d	Love	2G	Love
4d	love	4G	love
8f	me	8d	me
8[g	do	8[c	do
=10	=10	=10	=10
8g]	_	8c]	_
8r	.	8r	.
4r	.	4r	.
4r	.	4r	.
4f	You	4G	You
=11	=11	=11	=11
2d	know	2G	know
4d	I	4G	I
8f	love	8d	love
8[g	you	8[c	you
=12	=12	=12	=12
8g]	_	8c]	_
8r	.	8r	.
4r	.	4r	.
4r	.	4r	.
4f	I'll	4G	I'll
=13	=13	=13	=13
2d	al-	2G	al-
4d	-ways	4G	-ways
8f	be	8d	be
8[g	true	8[c	true
=14	=14	=14	=14
8g]	_	8c]	_
8r	.	8r	.
4r	.	4r	.
4r	.	4r	.
4f	so	4d	so
=15	=15	=15	=15
2g	please	2e	please
4g	_	4d	_
4g	_	4c	_
=16	=16	=16	=16
1[g	_	1[e	_
=17	=17	=17	=17
8g]	_	8e]	_
4.r	.	4.r	.
4G	Love	2r	.
4G	me	.	.
=18	=18	=18	=18
8B-	do	1r	.
2..G	_	.	.
=19	=19	=19	=19
4r	.	1r	.
8d-	Woh	.	.
4c	_	.	.
4r	.	.	.
8[B-	Love	.	.
=20	=20	=20	=20
8B-]	_	1r	.
4G	me	.	.
8[G	do	.	.
2G]	_	.	.
=21	=21	=21	=21
1r	.	1r	.
=22	=22	=22	=22
2d	Love	2G	Love
4d	love	4G	love
8f	me	8d	me
8[g	do	8[c	do
=23	=23	=23	=23
8g]	_	8c]	_
8r	.	8r	.
4r	.	4r	.
4r	.	4r	.
4f	You	4G	You
=24	=24	=24	=24
2d	know	2G	know
4d	I	4G	I
8f	love	8d	love
8[g	you	8[c	you
=25	=25	=25	=25
8g]	_	8c]	_
8r	.	8r	.
4r	.	4r	.
4r	.	4r	.
4f	I'll	4G	I'll
=26	=26	=26	=26
2d	al-	2G	al-
4d	-ways	4G	-ways
8f	be	8d	be
8[g	true	8[c	true
=27	=27	=27	=27
8g]	_	8c]	_
8r	.	8r	.
4r	.	4r	.
4r	.	4r	.
4f	So	4d	So
=28	=28	=28	=28
2g	please	2e	please
4g	_	4d	_
4g	_	4c	_
=29	=29	=29	=29
1[g	_	1[e	_
=30	=30	=30	=30
8g]	_	8e]	_
4.r	.	4.r	.
4G	Love	2r	.
4G	me	.	.
=31	=31	=31	=31
8B-	do	1r	.
2..G	_	.	.
=32	=32	=32	=32
4r	.	1r	.
8d-	Woh	.	.
4c	_	.	.
4r	.	.	.
8[B-	love	.	.
=33	=33	=33	=33
8B-]	_	1r	.
4G	me	.	.
8[G	do	.	.
2G]	_	.	.
=34	=34	=34	=34
1r	.	1r	.
=35	=35	=35	=35
2A	Some-	1r	.
4A	-one	.	.
4G	to	.	.
=36	=36	=36	=36
2.F#	love	1r	.
4r	.	.	.
=37	=37	=37	=37
2g	Some-	2G	Some-
4f	-bo-	4F	-bo-
4c	-dy	4C	-dy
=38	=38	=38	=38
4B-	new	2.GG	new
2G	_	.	.
4r	.	4r	.
=39	=39	=39	=39
2A	Some-	1r	.
4A	-one	.	.
4G	to	.	.
=40	=40	=40	=40
2.F#	love	1r	.
4r	.	.	.
=41	=41	=41	=41
2g	Some-	2G	Some-
4f	-one	4F	-one
4c	like	4C	like
=42	=42	=42	=42
4G	you	4GG	you
4r	.	4r	.
2r	.	2r	.
=43	=43	=43	=43
2d	Love	2G	Love
4d	love	4G	love
8f	me	8d	me
8[g	do	8[c	do
=44	=44	=44	=44
8g]	_	8c]	_
8r	.	8r	.
4r	.	4r	.
4r	.	4r	.
4f	You	4G	You
=45	=45	=45	=45
2d	know	2G	know
4d	I	4G	I
8f	love	8d	love
8[g	you	8[c	you
=46	=46	=46	=46
8g]	_	8c]	_
8r	.	8r	.
4r	.	4r	.
4r	.	4r	.
4f	I'll	4G	I'll
=47	=47	=47	=47
2d	al-	2G	al-
4d	-ways	4G	-ways
8f	be	8d	be
8[g	true	8[c	true
=48	=48	=48	=48
8g]	_	8c]	_
8r	.	8r	.
4r	.	4r	.
4r	.	4r	.
4f	So	4d	So
=49	=49	=49	=49
2g	please	2e	please
4g	_	4d	_
4g	_	4c	_
=50	=50	=50	=50
1[g	_	1[e	_
=51	=51	=51	=51
8g]	_	8e]	_
4.r	.	4.r	.
4G	Love	2r	.
4G	me	.	.
=52	=52	=52	=52
8B-	do	1r	.
2..G	_	.	.
=53	=53	=53	=53
4r	.	1r	.
8d-	Woh	.	.
4.c	_	.	.
4r	.	.	.
=54	=54	=54	=54
8B-	love	1r	.
4G	me	.	.
8[G	do	.	.
2G_	_	.	.
=55	=55	=55	=55
4G]	_	1r	.
4r	.	.	.
2r	.	.	.
=56	=56	=56	=56
1r	.	1r	.
=57	=57	=57	=57
1r	.	1r	.
=58	=58	=58	=58
1r	.	1r	.
=59	=59	=59	=59
1r	.	1r	.
=60	=60	=60	=60
1r	.	1r	.
=61	=61	=61	=61
1r	.	1r	.
=62	=62	=62	=62
1r	.	1r	.
=63	=63	=63	=63
1r	.	1r	.
=64	=64	=64	=64
1r	.	1r	.
=65	=65	=65	=65
1r	.	1r	.
=66	=66	=66	=66
1r	.	1r	.
=67	=67	=67	=67
1r	.	1r	.
=68	=68	=68	=68
2d	Love	2G	Love
4d	love	4G	love
8f	me	8d	me
8[g	do	8[c	do
=69	=69	=69	=69
8g]	_	8c]	_
8r	.	8r	.
4r	.	4r	.
4r	.	4r	.
4f	You	4G	You
=70	=70	=70	=70
2d	know	2G	know
4d	I	4G	I
8f	love	8d	love
8[g	you	8[c	you
=71	=71	=71	=71
8g]	_	8c]	_
8r	.	8r	.
4r	.	4r	.
4r	.	4r	.
4f	I'll	4G	I'll
=72	=72	=72	=72
2d	al-	2G	al-
4d	-ways	4G	-ways
8f	be	8d	be
8[g	true	8[c	true
=73	=73	=73	=73
8g]	_	8c]	_
8r	.	8r	.
4r	.	4r	.
4r	.	4r	.
4f	So	4d	So
=74	=74	=74	=74
2g	please	2e	please
4g	_	4d	_
4g	_	4c	_
=75	=75	=75	=75
1[g	_	1[e	_
=76	=76	=76	=76
8g]	_	8e]	_
4.r	.	4.r	.
4G	Love	2r	.
4G	me	.	.
=77	=77	=77	=77
8B-	do	1r	.
2..G	_	.	.
=78	=78	=78	=78
4r	.	1r	.
8d-	Woh	.	.
4c	_	.	.
4r	.	.	.
8[B-	love	.	.
=79	=79	=79	=79
8B-]	_	1r	.
4G	me	.	.
8[G	do	.	.
2G]	_	.	.
=80	=80	=80	=80
4.r	.	1r	.
2g	Yeah	.	.
8[b-	love	.	.
=81	=81	=81	=81
8b-]	_	1r	.
4g	me	.	.
8[g	do	.	.
4g]	_	.	.
4r	.	.	.
=82	=82	=82	=82
4r	.	1r	.
8d-	Woh	.	.
4.c	_	.	.
4r	.	.	.
=83	=83	=83	=83
8B-	love	1r	.
4G	me	.	.
8[G	do	.	.
2G]	_	.	.
=84	=84	=84	=84
4.r	.	1r	.
4.B-	Yeah	.	.
4r	.	.	.
=85	=85	=85	=85
1r	.	1r	.
r;	.	r;	.
r;	.	r;	.
*-	*-	*-	*-
!!!ENC: Nathaniel Condit-Schultz